Origami/32x32/apps/dino.svg

<svg width="32" height="32" version="1" xmlns="http://www.w3.org/2000/svg">
 <path d="m28.895136 30.428s1.371-2.490811 1.058559-3.023554c-0.274674-0.468298-2.796178-0.353554-2.796178-0.353554s2.134555-2.588669 1.796483-3.165061c-0.332841-0.567459-3.954-0.886162-3.954-0.886162s3.952746-1.321395 4.066-1.971c0.118847-0.680802-3.540133-3.141043-3.540133-3.141043s2.716987-4.529482 2.462133-5.133842c-0.319896-0.758384-4.187702-0.75423-4.187702-0.75423s1.71278-5.4862974 1.007404-5.932885c-0.592662-0.3750683-7.156741 1.6609605-7.156741 1.6609605s-1.966908-4.7279604-3.062093-4.7279604c-1.102105 0-3.430398 4.7348057-3.430398 4.7348057s-3.965261-3.136559-4.6808794-2.7298058c-0.632665 0.3595519-0.3471812 5.496367-0.3471812 5.496367z" style="fill-rule:evenodd;opacity:.2"/>
 <path d="m14.095703 10.193306c-2.117119 0-4.042361 0.127196-5.6855468 0.509765-3.5882227 0.207514-6.3945312 6.988335-6.4101562 7.986328 0.0026 1.621482 0.4201319 3.203748 1.1972656 4.537109 1.9408227 4.004273 6.0405745 6.767579 10.789062 6.767579 2.21592 0 4.285409-0.611937 6.066406-1.660157 3.422992 1.215399 9.036532 3.111989 9.464844 2.5625 0.493912-0.633718-2.925666-5.905124-4.480469-8.234375 0.603679-1.431013 0.9375-3.003607 0.9375-4.654297 0-6.620183-5.258722-7.814452-11.878906-7.814452z" style="opacity:.2"/>
 <path d="m28.895136 29.428331s1.371-2.490811 1.058559-3.023554c-0.274674-0.468298-2.796178-0.353554-2.796178-0.353554s2.134555-2.588669 1.796483-3.165061c-0.332841-0.567459-3.954-0.886162-3.954-0.886162s3.952746-1.321395 4.066-1.971c0.118847-0.680802-3.540133-3.141043-3.540133-3.141043s2.716987-4.529482 2.462133-5.133842c-0.319896-0.758384-4.187702-0.75423-4.187702-0.75423s1.71278-5.4862974 1.007404-5.932885c-0.592662-0.3750683-7.156741 1.6609605-7.156741 1.6609605s-1.966908-4.7279604-3.062093-4.7279604c-1.102105 0-3.430398 4.7348057-3.430398 4.7348057s-3.965261-3.136559-4.6808794-2.7298058c-0.632665 0.3595519-0.3471812 5.4963668-0.3471812 5.4963668z" style="fill-rule:evenodd;fill:#455a64"/>
 <path d="m14.589844 2c-1.102105 0-3.431641 4.734375-3.431641 4.734375s-3.964069-3.1352688-4.6796874-2.7285156c-0.36837 0.2093496-0.4189206 1.9850381-0.4023437 3.4765625 0.0229165-1.1892296 0.1184921-2.317199 0.4023437-2.4785157 0.7156184-0.4067531 4.6796874 2.7304688 4.6796874 2.7304688s2.329536-4.734375 3.431641-4.734375c1.095185 0 3.060547 4.7285156 3.060547 4.7285156s6.565541-2.0371776 7.158203-1.6621094c0.058981 0.0373423 0.093512 0.1209946 0.121094 0.2226563 0.074864-0.6267926 0.06514-1.1047478-0.121094-1.2226563-0.592662-0.3750682-7.158203 1.6621094-7.158203 1.6621094s-1.965362-4.7285156-3.060547-4.7285156zm9.501953 9.005859c-0.165292 0.58079-0.291016 0.994141-0.291016 0.994141s3.168247-0.00132 4.001953 0.5625c0.145828-0.375873 0.237321-0.685818 0.185547-0.808594-0.281702-0.667838-3.176262-0.739296-3.896484-0.748047zm1.839844 6.164063c-0.107045 0.182152-0.40625 0.716797-0.40625 0.716797s2.280291 1.539665 3.171875 2.519531c0.197795-0.137138 0.35017-0.268144 0.36914-0.376953 0.097677-0.559534-2.257367-2.249589-3.134765-2.859375zm1.05664 5.08789c-1.001703 0.411193-1.988281 0.742188-1.988281 0.742188s2.951506 0.264641 3.755859 0.736328c0.188163-0.371043 0.290984-0.689826 0.197266-0.849609-0.157965-0.269314-1.064162-0.47913-1.964844-0.628907zm0.923828 3.794922c-0.391973 0.539993-0.753906 0.998047-0.753906 0.998047s2.151791-0.093541 2.681641 0.267578c0.129738-0.397703 0.208045-0.752481 0.113281-0.914062-0.194716-0.331976-1.286777-0.357003-2.041016-0.351563z" style="fill-rule:evenodd;fill:#ffffff;opacity:.1"/>
 <path d="m 14.095703,9.1933594 c -2.117119,0 -4.042361,0.1271965 -5.6855468,0.5097656 C 4.8219335,9.9106394 2,17 2,17.689453 c 0.0026,1.621482 0.4201319,3.203748 1.1972656,4.537109 1.9408227,4.004272 6.0405744,6.767579 10.7890624,6.767579 6.620184,0 11.988281,-5.366145 11.988281,-11.986329 0,-6.620183 -5.258722,-7.8144526 -11.878906,-7.8144526 z" style="fill:#80cbc4"/>
 <path d="m24.237437 20.474579s5.912377 8.61138 5.280262 9.422421c-0.613835 0.787499-12.111773-3.51282-12.111773-3.51282z" style="fill-rule:evenodd;fill:#80cbc4"/>
 <path d="m13.986903 5.02108c-6.6201839 0-11.986903 5.366719-11.986903 11.986903 0 0.04511 0.00639 0.0886 0.00689 0.133586-5.64e-4 0.047262-0.00689 0.093074-0.00689 0.140471 0 0.631989 0.051069 1.252413 0.1473573 1.857806 0.030978 0.147039 0.081118 0.27237 0.1225683 0.407641 0.5844494 1.907354 2.1070729 2.674469 2.1070729 2.674469 0.3693952 0.298407 0.8290925 0.602682 1.3592685 0.903424h-0.044069s1.1120566 5.924859 3.150969 5.87462c1.54206-0.03801 2.752124-3.061633 4.712682-3 1.958857 0.06159 2.753793 2.979642 4.703041 3 1.125732 0.01176 2.123138-1.429075 2.74111-3h0.564104c1.85338 1.725253 6.06663 3.346414 7.892258 3.941725 0.02495-0.01303 0.04529-0.02757 0.05922-0.04545 0.446863-0.573257-2.70506-5.782186-4.450704-8.317465 0.582275-1.409419 0.90893-2.95109 0.90893-4.570828 0-6.620184-5.366719-11.986903-11.986903-11.986903z" style="fill-rule:evenodd;fill:#009688"/>
 <circle cx="8.5" cy="14.5" r="1.5" style="fill-rule:evenodd;opacity:.2"/>
 <circle cx="8.5" cy="13.5" r="1.5" style="fill-rule:evenodd;fill:#ffffff"/>
 <path d="m13.986328 5.0214844c-6.6201838 0-11.986328 5.3661436-11.986328 11.986328 0 0.045111 0.0073125 0.087827 0.0078125 0.132813-5.64e-4 0.047262-0.0078125 0.093228-0.0078125 0.140625 0 0.137953 0.0108192 0.273342 0.015625 0.410156 0.1694589-6.472407 5.4574151-11.669922 11.970703-11.669922 6.451908 0 11.699587 5.1010656 11.962891 11.488282 0.007072-0.167722 0.02539-0.332461 0.02539-0.501954 0-6.620183-5.368097-11.986328-11.988281-11.986328zm11.310547 16.91211c-0.075268 0.216026-0.145534 0.434215-0.232422 0.644531 1.360261 1.97557 3.552053 5.548452 4.251953 7.3125 0.038736 0.012838 0.103794 0.038771 0.140625 0.050781 0.02495-0.01303 0.044664-0.027042 0.058594-0.044922 0.429513-0.550999-2.443173-5.337081-4.21875-7.96289z" style="fill-rule:evenodd;fill:#ffffff;opacity:.1"/>
</svg>

<svg xmlns="http://www.w3.org/2000/svg" width="32" height="32" version="1">
 <path style="opacity:0.2;fill-rule:evenodd" d="m 28.895136,30.428 c 0,0 1.371,-2.490811 1.058559,-3.023554 -0.274674,-0.468298 -2.796178,-0.353554 -2.796178,-0.353554 0,0 2.134555,-2.588669 1.796483,-3.165061 C 28.621159,23.318372 25,22.999669 25,22.999669 c 0,0 3.952746,-1.321395 4.066,-1.971 0.118847,-0.680802 -3.540133,-3.141043 -3.540133,-3.141043 0,0 2.716987,-4.529482 2.462133,-5.133842 -0.319896,-0.758384 -4.187702,-0.75423 -4.187702,-0.75423 0,0 1.71278,-5.4862974 1.007404,-5.932885 -0.592662,-0.3750683 -7.156741,1.6609605 -7.156741,1.6609605 0,0 -1.966908,-4.7279604 -3.062093,-4.7279604 -1.102105,0 -3.430398,4.7348057 -3.430398,4.7348057 0,0 -3.965261,-3.136559 -4.6808794,-2.7298058 -0.632665,0.3595519 -0.3471812,5.496367 -0.3471812,5.496367 z"/>
 <path style="opacity:0.2" d="m 14.095703,10.193306 c -2.117119,0 -4.042361,0.127196 -5.6855468,0.509765 C 4.8219335,10.910585 2.015625,17.691406 2,18.689399 c 0.0026,1.621482 0.4201319,3.203748 1.1972656,4.537109 1.9408227,4.004273 6.0405745,6.767579 10.7890624,6.767579 2.21592,0 4.285409,-0.611937 6.066406,-1.660157 3.422992,1.215399 9.036532,3.111989 9.464844,2.5625 0.493912,-0.633718 -2.925666,-5.905124 -4.480469,-8.234375 0.603679,-1.431013 0.9375,-3.003607 0.9375,-4.654297 0,-6.620183 -5.258722,-7.814452 -11.878906,-7.814452 z"/>
 <path style="fill:#455a64;fill-rule:evenodd" d="m 28.895136,29.428331 c 0,0 1.371,-2.490811 1.058559,-3.023554 -0.274674,-0.468298 -2.796178,-0.353554 -2.796178,-0.353554 0,0 2.134555,-2.588669 1.796483,-3.165061 C 28.621159,22.318703 25,22 25,22 c 0,0 3.952746,-1.321395 4.066,-1.971 0.118847,-0.680802 -3.540133,-3.141043 -3.540133,-3.141043 0,0 2.716987,-4.529482 2.462133,-5.133842 -0.319896,-0.758384 -4.187702,-0.75423 -4.187702,-0.75423 0,0 1.71278,-5.4862974 1.007404,-5.932885 -0.592662,-0.3750683 -7.156741,1.6609605 -7.156741,1.6609605 0,0 -1.966908,-4.7279604 -3.062093,-4.7279604 -1.102105,0 -3.430398,4.7348057 -3.430398,4.7348057 0,0 -3.965261,-3.136559 -4.6808794,-2.7298058 -0.632665,0.3595519 -0.3471812,5.4963668 -0.3471812,5.4963668 z"/>
 <path style="fill:#ffffff;fill-rule:evenodd;opacity:0.1" d="M 14.589844 2 C 13.487739 2 11.158203 6.734375 11.158203 6.734375 C 11.158203 6.734375 7.194134 3.5991062 6.4785156 4.0058594 C 6.1101456 4.215209 6.059595 5.9908975 6.0761719 7.4824219 C 6.0990884 6.2931923 6.194664 5.1652229 6.4785156 5.0039062 C 7.194134 4.5971531 11.158203 7.734375 11.158203 7.734375 C 11.158203 7.734375 13.487739 3 14.589844 3 C 15.685029 3 17.650391 7.7285156 17.650391 7.7285156 C 17.650391 7.7285156 24.215932 5.691338 24.808594 6.0664062 C 24.867575 6.1037485 24.902106 6.1874008 24.929688 6.2890625 C 25.004552 5.6622699 24.994828 5.1843147 24.808594 5.0664062 C 24.215932 4.691338 17.650391 6.7285156 17.650391 6.7285156 C 17.650391 6.7285156 15.685029 2 14.589844 2 z M 24.091797 11.005859 C 23.926505 11.586649 23.800781 12 23.800781 12 C 23.800781 12 26.969028 11.99868 27.802734 12.5625 C 27.948562 12.186627 28.040055 11.876682 27.988281 11.753906 C 27.706579 11.086068 24.812019 11.01461 24.091797 11.005859 z M 25.931641 17.169922 C 25.824596 17.352074 25.525391 17.886719 25.525391 17.886719 C 25.525391 17.886719 27.805682 19.426384 28.697266 20.40625 C 28.895061 20.269112 29.047436 20.138106 29.066406 20.029297 C 29.164083 19.469763 26.809039 17.779708 25.931641 17.169922 z M 26.988281 22.257812 C 25.986578 22.669005 25 23 25 23 C 25 23 27.951506 23.264641 28.755859 23.736328 C 28.944022 23.365285 29.046843 23.046502 28.953125 22.886719 C 28.79516 22.617405 27.888963 22.407589 26.988281 22.257812 z M 27.912109 26.052734 C 27.520136 26.592727 27.158203 27.050781 27.158203 27.050781 C 27.158203 27.050781 29.309994 26.95724 29.839844 27.318359 C 29.969582 26.920656 30.047889 26.565878 29.953125 26.404297 C 29.758409 26.072321 28.666348 26.047294 27.912109 26.052734 z"/>
 <g>
  <path style="fill:#80cbc4" d="m 14.095703,9.1933594 c -2.117119,0 -4.042361,0.1271965 -5.6855468,0.5097656 C 4.8219335,9.9106394 2,17 2,17.689453 c 0.0026,1.621482 0.4201319,3.203748 1.1972656,4.537109 1.9408227,4.004272 6.0405744,6.767579 10.7890624,6.767579 6.620184,0 11.988281,-5.366145 11.988281,-11.986329 0,-6.620183 -5.258722,-7.8144526 -11.878906,-7.8144526 z"/>
  <path style="fill:#80cbc4;fill-rule:evenodd" d="m 24.237437,20.474579 c 0,0 5.912377,8.61138 5.280262,9.422421 -0.613835,0.787499 -12.111773,-3.51282 -12.111773,-3.51282 z"/>
 </g>
 <path style="fill:#009688;fill-rule:evenodd" d="M 13.986903,5.02108 C 7.3667191,5.02108 2,10.387799 2,17.007983 c 0,0.04511 0.00639,0.0886 0.00689,0.133586 C 2.006326,17.188831 2,17.234643 2,17.28204 c 0,0.631989 0.051069,1.252413 0.1473573,1.857806 0.030978,0.147039 0.081118,0.27237 0.1225683,0.407641 0.5844494,1.907354 2.1070729,2.674469 2.1070729,2.674469 0.3693952,0.298407 0.8290925,0.602682 1.3592685,0.903424 H 5.692198 c 0,0 1.1120566,5.924859 3.150969,5.87462 1.54206,-0.03801 2.752124,-3.061633 4.712682,-3 1.958857,0.06159 2.753793,2.979642 4.703041,3 1.125732,0.01176 2.123138,-1.429075 2.74111,-3 h 0.564104 c 1.85338,1.725253 6.06663,3.346414 7.892258,3.941725 0.02495,-0.01303 0.04529,-0.02757 0.05922,-0.04545 0.446863,-0.573257 -2.70506,-5.782186 -4.450704,-8.317465 0.582275,-1.409419 0.90893,-2.95109 0.90893,-4.570828 0,-6.620184 -5.366719,-11.986903 -11.986903,-11.986903 z"/>
 <circle style="opacity:0.2;fill-rule:evenodd" cx="8.5" cy="14.5" r="1.5"/>
 <circle style="fill:#ffffff;fill-rule:evenodd" cx="8.5" cy="13.5" r="1.5"/>
 <path style="fill:#ffffff;fill-rule:evenodd;opacity:0.1" d="M 13.986328 5.0214844 C 7.3661442 5.0214844 2 10.387628 2 17.007812 C 2 17.052923 2.0073125 17.095639 2.0078125 17.140625 C 2.0072485 17.187887 2 17.233853 2 17.28125 C 2 17.419203 2.0108192 17.554592 2.015625 17.691406 C 2.1850839 11.218999 7.4730401 6.0214844 13.986328 6.0214844 C 20.438236 6.0214844 25.685915 11.12255 25.949219 17.509766 C 25.956291 17.342044 25.974609 17.177305 25.974609 17.007812 C 25.974609 10.387629 20.606512 5.0214844 13.986328 5.0214844 z M 25.296875 21.933594 C 25.221607 22.14962 25.151341 22.367809 25.064453 22.578125 C 26.424714 24.553695 28.616506 28.126577 29.316406 29.890625 C 29.355142 29.903463 29.4202 29.929396 29.457031 29.941406 C 29.481981 29.928376 29.501695 29.914364 29.515625 29.896484 C 29.945138 29.345485 27.072452 24.559403 25.296875 21.933594 z"/>
</svg>
